;FLAVOR:Marlin
;TIME:18223
;Filament used: 14.3421m
;Layer height: 0.2
;MINX:31.997
;MINY:32.021
;MINZ:0.2
;MAXX:268.003
;MAXY:267.979
;MAXZ:6.2
;Generated with Cura_SteamEngine 4.8
M140 S90
M105
M190 S90
M104 S250
M105
M109 S250
M82 ;absolute extrusion mode
M201 X500.00 Y500.00 Z100.00 E5000.00 ;Setup machine max acceleration
M203 X500.00 Y500.00 Z10.00 E50.00 ;Setup machine max feedrate
M204 P500.00 R1000.00 T500.00 ;Setup Print/Retract/Travel acceleration
M205 X8.00 Y8.00 Z0.40 E5.00 ;Setup Jerk
M220 S100 ;Reset Feedrate
M221 S100 ;Reset Flowrate

G28 ;Home

G92 E0 ;Reset Extruder
G1 Z2.0 F3000 ;Move Z Axis up
G1 X10.1 Y20 Z0.28 F5000.0 ;Move to start position
G1 X10.1 Y200.0 Z0.28 F1500.0 E15 ;Draw the first line
G1 X10.4 Y200.0 Z0.28 F5000.0 ;Move to side a little
G1 X10.4 Y20 Z0.28 F1500.0 E30 ;Draw the second line
G92 E0 ;Reset Extruder
G1 Z2.0 F3000 ;Move Z Axis up

G92 E0
G92 E0
G1 F2700 E-5
;LAYER_COUNT:31
;LAYER:0
M107
G0 F6000 X66.979 Y66.152 Z0.2
;TYPE:SKIRT
G1 F2700 E0
G1 F1200 X67.646 Y65.486 E0.03135
G1 X67.838 Y65.299 E0.04026
G1 X68.201 Y64.954 E0.05692
G1 X71.193 Y62.178 E0.19267
G1 X71.957 Y61.489 E0.22689
G1 X72.166 Y61.305 E0.23615
G1 X72.544 Y60.983 E0.25267
G1 X75.82 Y58.235 E0.39488
G1 X76.445 Y57.726 E0.42169
G1 X76.648 Y57.564 E0.43033
G1 X77.087 Y57.224 E0.4488
G1 X80.338 Y54.761 E0.58446
G1 X81.144 Y54.168 E0.61774
G1 X81.361 Y54.012 E0.62663
G1 X81.793 Y53.712 E0.64412
G1 X85.321 Y51.308 E0.78611
G1 X85.99 Y50.866 E0.81278
G1 X86.222 Y50.717 E0.82195
G1 X86.718 Y50.408 E0.84139
G1 X90.299 Y48.219 E0.98098
G1 X91.004 Y47.801 E1.00824
G1 X91.266 Y47.651 E1.01829
G1 X91.734 Y47.391 E1.03609
G1 X95.462 Y45.362 E1.17726
G1 X96.203 Y44.972 E1.20511
G1 X96.455 Y44.843 E1.21453
G1 X96.877 Y44.635 E1.23018
G1 X100.736 Y42.778 E1.37261
G1 X101.485 Y42.43 E1.40008
G1 X101.742 Y42.315 E1.40945
G1 X102.224 Y42.106 E1.42692
G1 X106.129 Y40.461 E1.56786
G1 X106.958 Y40.126 E1.5976
G1 X107.201 Y40.031 E1.60627
G1 X107.61 Y39.878 E1.6208
G1 X111.664 Y38.404 E1.76427
G1 X112.442 Y38.133 E1.79167
G1 X112.711 Y38.043 E1.80111
G1 X113.204 Y37.886 E1.81831
G1 X117.22 Y36.648 E1.95809
G1 X118.115 Y36.386 E1.98911
G1 X118.377 Y36.313 E1.99815
G1 X118.786 Y36.204 E2.01223
G1 X122.782 Y35.186 E2.14938
G1 X123.821 Y34.937 E2.18492
G1 X124.085 Y34.877 E2.19392
G1 X124.487 Y34.792 E2.20759
G1 X128.704 Y33.94 E2.35068
G1 X129.555 Y33.78 E2.37948
G1 X129.831 Y33.732 E2.3888
G1 X130.295 Y33.658 E2.40443
G1 X134.54 Y33.019 E2.54721
G1 X135.371 Y32.906 E2.5751
G1 X135.631 Y32.874 E2.58381
G1 X136.107 Y32.822 E2.59974
G1 X140.405 Y32.393 E2.7434
G1 X141.214 Y32.324 E2.77041
G1 X141.493 Y32.304 E2.77971
G1 X142 Y32.274 E2.7966
G1 X146.111 Y32.068 E2.93351
G1 X147.117 Y32.032 E2.96699
G1 X147.367 Y32.026 E2.97531
G1 X147.834 Y32.021 E2.99084
G1 X151.961 Y32.021 E3.1281
G1 X153.014 Y32.035 E3.16313
G1 X153.285 Y32.042 E3.17215
G1 X153.707 Y32.06 E3.18619
G1 X158.027 Y32.276 E3.33006
G1 X158.851 Y32.329 E3.35752
G1 X159.131 Y32.35 E3.36686
G1 X159.628 Y32.396 E3.38346
G1 X163.852 Y32.819 E3.52465
G1 X164.711 Y32.917 E3.55341
G1 X164.997 Y32.953 E3.563
G1 X165.508 Y33.026 E3.58017
G1 X169.668 Y33.654 E3.7201
G1 X170.529 Y33.796 E3.74912
G1 X170.799 Y33.844 E3.75824
G1 X171.303 Y33.94 E3.77531
G1 X175.326 Y34.754 E3.91182
G1 X176.337 Y34.973 E3.94623
G1 X176.599 Y35.033 E3.95517
G1 X176.964 Y35.122 E3.96766
G1 X181.041 Y36.159 E4.10758
G1 X181.993 Y36.416 E4.14038
G1 X182.276 Y36.496 E4.15016
G1 X182.755 Y36.64 E4.1668
G1 X186.816 Y37.893 E4.30815
G1 X187.634 Y38.158 E4.33675
G1 X188.149 Y38.335 E4.35486
G1 X192.369 Y39.871 E4.50423
G1 X193.164 Y40.174 E4.53252
G1 X193.721 Y40.398 E4.55249
G1 X197.639 Y42.049 E4.6939
G1 X198.54 Y42.442 E4.7266
G1 X198.803 Y42.561 E4.7362
G1 X199.325 Y42.807 E4.75539
G1 X203.089 Y44.621 E4.89436
G1 X203.9 Y45.026 E4.92451
G1 X204.159 Y45.159 E4.9342
G1 X204.534 Y45.359 E4.94833
G1 X208.148 Y47.326 E5.08519
G1 X209.048 Y47.832 E5.11953
G1 X209.303 Y47.98 E5.12933
G1 X209.678 Y48.205 E5.14388
G1 X213.301 Y50.421 E5.28513
G1 X214.084 Y50.915 E5.31593
G1 X214.301 Y51.055 E5.32451
G1 X214.688 Y51.313 E5.33998
G1 X218.2 Y53.708 E5.48137
G1 X218.93 Y54.221 E5.51105
G1 X219.15 Y54.38 E5.52007
G1 X219.532 Y54.664 E5.53591
G1 X222.923 Y57.234 E5.67742
G1 X223.603 Y57.764 E5.7061
G1 X223.828 Y57.944 E5.71568
G1 X224.214 Y58.263 E5.73234
G1 X227.468 Y60.994 E5.87363
G1 X228.135 Y61.57 E5.90294
G1 X228.345 Y61.756 E5.91227
G1 X228.637 Y62.021 E5.92539
G1 X231.687 Y64.851 E6.06377
G1 X232.411 Y65.542 E6.09706
G1 X232.602 Y65.728 E6.10593
G1 X233.027 Y66.156 E6.12599
G1 X235.805 Y69.004 E6.25831
G1 X236.551 Y69.79 E6.29436
G1 X236.729 Y69.981 E6.30304
G1 X237.032 Y70.318 E6.31811
G1 X239.874 Y73.54 E6.46101
G1 X240.425 Y74.183 E6.48917
G1 X240.597 Y74.389 E6.4981
G1 X240.924 Y74.792 E6.51536
G1 X243.537 Y78.069 E6.65476
G1 X244.1 Y78.795 E6.68532
G1 X244.264 Y79.013 E6.69439
G1 X244.529 Y79.374 E6.70929
G1 X247.023 Y82.845 E6.85144
G1 X247.531 Y83.573 E6.88097
G1 X247.686 Y83.802 E6.89017
G1 X247.947 Y84.198 E6.90594
G1 X250.271 Y87.798 E7.04846
G1 X250.717 Y88.51 E7.0764
G1 X250.857 Y88.739 E7.08533
G1 X251.088 Y89.13 E7.10044
G1 X253.245 Y92.87 E7.24403
G1 X253.642 Y93.58 E7.27109
G1 X253.773 Y93.82 E7.28018
G1 X254.026 Y94.302 E7.29829
G1 X255.945 Y98.048 E7.43828
G1 X256.34 Y98.845 E7.46786
G1 X256.454 Y99.082 E7.47661
G1 X256.658 Y99.522 E7.49274
G1 X258.401 Y103.392 E7.63391
G1 X258.758 Y104.213 E7.66369
G1 X258.868 Y104.477 E7.6732
G1 X259.044 Y104.914 E7.68887
G1 X260.595 Y108.868 E7.83014
G1 X260.897 Y109.67 E7.85864
G1 X260.988 Y109.919 E7.86746
G1 X261.169 Y110.44 E7.8858
G1 X262.512 Y114.441 E8.02617
G1 X262.78 Y115.279 E8.05543
G1 X262.857 Y115.528 E8.0641
G1 X262.984 Y115.965 E8.07924
G1 X264.151 Y120.118 E8.22272
G1 X264.369 Y120.938 E8.25094
G1 X264.505 Y121.49 E8.26985
G1 X265.484 Y125.78 E8.4162
G1 X265.677 Y126.681 E8.44685
G1 X265.731 Y126.951 E8.45601
G1 X265.811 Y127.381 E8.47055
G1 X266.559 Y131.632 E8.61412
G1 X266.693 Y132.46 E8.64201
G1 X266.732 Y132.725 E8.65092
G1 X266.794 Y133.183 E8.66629
G1 X267.326 Y137.429 E8.80862
G1 X267.423 Y138.305 E8.83794
G1 X267.45 Y138.573 E8.84689
G1 X267.491 Y139.069 E8.86345
G1 X267.804 Y143.27 E9.00356
G1 X267.858 Y144.163 E9.03332
G1 X267.87 Y144.414 E9.04167
G1 X267.891 Y144.98 E9.06051
G1 X267.992 Y149.043 E9.19569
G1 X268.003 Y150.053 E9.22928
G1 X268.003 Y150.328 E9.23843
G1 X267.996 Y150.788 E9.25373
G1 X267.889 Y155.052 E9.3956
G1 X267.855 Y155.917 E9.42439
G1 X267.84 Y156.189 E9.43345
G1 X267.803 Y156.757 E9.45238
G1 X267.494 Y160.88 E9.5899
G1 X267.41 Y161.817 E9.62119
G1 X267.385 Y162.063 E9.62941
G1 X267.329 Y162.559 E9.64601
G1 X266.798 Y166.784 E9.78764
G1 X266.679 Y167.634 E9.81619
G1 X266.638 Y167.904 E9.82527
G1 X266.555 Y168.4 E9.842
G1 X265.838 Y172.466 E9.97932
G1 X265.661 Y173.399 E10.01091
G1 X265.605 Y173.676 E10.02031
G1 X265.499 Y174.163 E10.03688
G1 X264.547 Y178.327 E10.17895
G1 X264.342 Y179.166 E10.20768
G1 X264.279 Y179.411 E10.21609
G1 X264.138 Y179.931 E10.23401
G1 X262.992 Y184.003 E10.37471
G1 X262.736 Y184.862 E10.40452
G1 X262.568 Y185.391 E10.42298
G1 X261.198 Y189.474 E10.56622
G1 X260.877 Y190.391 E10.59854
G1 X260.774 Y190.67 E10.60843
G1 X260.619 Y191.076 E10.62288
G1 X259.101 Y194.944 E10.76109
G1 X258.716 Y195.885 E10.7949
G1 X258.611 Y196.134 E10.80389
G1 X258.415 Y196.579 E10.82006
G1 X256.67 Y200.446 E10.96117
G1 X256.3 Y201.234 E10.99012
G1 X256.196 Y201.45 E10.9981
G1 X255.922 Y201.999 E11.01851
G1 X254.038 Y205.672 E11.1558
G1 X253.607 Y206.485 E11.18641
G1 X253.466 Y206.742 E11.19616
G1 X253.237 Y207.148 E11.21166
G1 X251.196 Y210.685 E11.34748
G1 X250.66 Y211.582 E11.38224
G1 X250.542 Y211.775 E11.38976
G1 X250.251 Y212.236 E11.40789
G1 X247.951 Y215.795 E11.54884
G1 X247.458 Y216.535 E11.57841
G1 X247.289 Y216.783 E11.58839
G1 X247.069 Y217.092 E11.60101
G1 X244.564 Y220.576 E11.74373
G1 X244.043 Y221.279 E11.77283
G1 X243.892 Y221.477 E11.78111
G1 X243.514 Y221.962 E11.80157
G1 X240.929 Y225.2 E11.93937
G1 X240.358 Y225.896 E11.96931
G1 X240.189 Y226.097 E11.97805
G1 X239.885 Y226.45 E11.99354
G1 X237.128 Y229.574 E12.13212
G1 X236.482 Y230.286 E12.1641
G1 X236.293 Y230.489 E12.17333
G1 X235.957 Y230.84 E12.18949
G1 X233.021 Y233.848 E12.32929
G1 X232.354 Y234.514 E12.36064
G1 X232.162 Y234.701 E12.36956
G1 X231.799 Y235.046 E12.38621
G1 X228.807 Y237.822 E12.52196
G1 X228.043 Y238.511 E12.55618
G1 X227.834 Y238.695 E12.56544
G1 X227.456 Y239.017 E12.58196
G1 X224.18 Y241.765 E12.72417
G1 X223.555 Y242.274 E12.75098
G1 X223.352 Y242.436 E12.75962
G1 X222.913 Y242.776 E12.77809
G1 X219.662 Y245.239 E12.91375
G1 X218.856 Y245.832 E12.94703
G1 X218.639 Y245.988 E12.95592
G1 X218.206 Y246.289 E12.97346
G1 X214.687 Y248.686 E13.11507
G1 X214.016 Y249.13 E13.14183
G1 X213.778 Y249.283 E13.15124
G1 X213.282 Y249.592 E13.17068
G1 X209.701 Y251.781 E13.31027
G1 X208.996 Y252.199 E13.33753
G1 X208.734 Y252.349 E13.34758
G1 X208.266 Y252.609 E13.36538
G1 X204.538 Y254.638 E13.50655
G1 X203.797 Y255.028 E13.5344
G1 X203.545 Y255.157 E13.54382
G1 X203.123 Y255.365 E13.55947
G1 X199.264 Y257.222 E13.7019
G1 X198.515 Y257.57 E13.72937
G1 X198.258 Y257.685 E13.73874
G1 X197.776 Y257.894 E13.75621
G1 X193.871 Y259.539 E13.89715
G1 X193.042 Y259.874 E13.92689
G1 X192.799 Y259.969 E13.93556
G1 X192.39 Y260.122 E13.95009
G1 X188.336 Y261.596 E14.09356
G1 X187.558 Y261.867 E14.12096
G1 X187.289 Y261.957 E14.1304
G1 X186.796 Y262.114 E14.1476
G1 X182.78 Y263.352 E14.28738
G1 X181.885 Y263.614 E14.3184
G1 X181.623 Y263.687 E14.32744
G1 X181.214 Y263.796 E14.34152
G1 X177.218 Y264.814 E14.47867
G1 X176.179 Y265.063 E14.51421
G1 X175.915 Y265.123 E14.52321
G1 X175.513 Y265.208 E14.53688
G1 X171.296 Y266.06 E14.67997
G1 X170.445 Y266.22 E14.70877
G1 X170.169 Y266.268 E14.71809
G1 X169.705 Y266.342 E14.73372
G1 X165.46 Y266.981 E14.8765
G1 X164.629 Y267.094 E14.90439
G1 X164.369 Y267.126 E14.9131
G1 X163.893 Y267.178 E14.92903
G1 X159.595 Y267.607 E15.07269
G1 X158.786 Y267.676 E15.0997
G1 X158.507 Y267.696 E15.109
G1 X158 Y267.726 E15.12589
G1 X153.889 Y267.932 E15.2628
G1 X152.883 Y267.968 E15.29628
G1 X152.633 Y267.974 E15.3046
G1 X152.166 Y267.979 E15.32013
G1 X147.879 Y267.978 E15.46272
G1 X146.986 Y267.965 E15.49242
G1 X146.715 Y267.958 E15.50144
G1 X146.293 Y267.94 E15.51549
G1 X141.974 Y267.724 E15.65932
G1 X141.149 Y267.671 E15.68681
G1 X140.866 Y267.65 E15.69625
G1 X140.372 Y267.604 E15.71275
G1 X136.148 Y267.181 E15.85395
G1 X135.289 Y267.083 E15.8827
G1 X135.003 Y267.047 E15.89229
G1 X134.492 Y266.974 E15.90946
G1 X130.332 Y266.346 E16.04939
G1 X129.471 Y266.204 E16.07841
G1 X129.201 Y266.156 E16.08753
G1 X128.697 Y266.06 E16.1046
G1 X124.674 Y265.246 E16.24111
G1 X123.663 Y265.027 E16.27552
G1 X123.401 Y264.967 E16.28446
G1 X123.036 Y264.878 E16.29695
G1 X118.959 Y263.841 E16.43687
G1 X118.007 Y263.584 E16.46967
G1 X117.724 Y263.504 E16.47945
G1 X117.245 Y263.36 E16.49609
G1 X113.184 Y262.107 E16.63744
G1 X112.366 Y261.842 E16.66604
G1 X111.851 Y261.665 E16.68415
G1 X107.631 Y260.129 E16.83352
G1 X106.836 Y259.826 E16.86182
G1 X106.279 Y259.602 E16.88178
G1 X102.361 Y257.951 E17.02319
G1 X101.46 Y257.558 E17.05589
G1 X101.197 Y257.439 E17.06549
G1 X100.675 Y257.193 E17.08468
G1 X96.911 Y255.379 E17.22365
G1 X96.1 Y254.974 E17.2538
G1 X95.841 Y254.841 E17.26349
G1 X95.466 Y254.641 E17.27762
G1 X91.852 Y252.674 E17.41448
G1 X90.952 Y252.168 E17.44882
G1 X90.697 Y252.02 E17.45862
G1 X90.322 Y251.795 E17.47317
G1 X86.699 Y249.579 E17.61442
G1 X85.916 Y249.085 E17.64522
G1 X85.699 Y248.945 E17.6538
G1 X85.312 Y248.687 E17.66927
G1 X81.8 Y246.292 E17.81066
G1 X81.07 Y245.779 E17.84034
G1 X80.845 Y245.616 E17.84958
G1 X80.467 Y245.335 E17.86524
G1 X77.077 Y242.766 E18.00671
G1 X76.397 Y242.236 E18.03539
G1 X76.172 Y242.056 E18.04497
G1 X75.785 Y241.737 E18.06165
G1 X72.531 Y239.006 E18.20295
G1 X71.865 Y238.431 E18.23221
G1 X71.655 Y238.244 E18.24156
G1 X71.363 Y237.978 E18.2547
G1 X68.195 Y235.037 E18.39848
G1 X67.589 Y234.458 E18.42635
G1 X67.398 Y234.272 E18.43522
G1 X66.973 Y233.844 E18.45528
G1 X64.086 Y230.883 E18.59283
G1 X63.448 Y230.21 E18.62367
G1 X63.268 Y230.016 E18.63247
G1 X62.968 Y229.682 E18.64741
G1 X60.126 Y226.46 E18.7903
G1 X59.575 Y225.817 E18.81847
G1 X59.403 Y225.611 E18.82739
G1 X59.076 Y225.208 E18.84465
G1 X56.463 Y221.931 E18.98405
G1 X55.9 Y221.205 E19.01461
G1 X55.74 Y220.993 E19.02344
G1 X55.47 Y220.625 E19.03863
G1 X52.977 Y217.155 E19.18074
G1 X52.469 Y216.427 E19.21026
G1 X52.314 Y216.198 E19.21946
G1 X52.053 Y215.803 E19.23521
G1 X49.81 Y212.331 E19.37269
G1 X49.281 Y211.487 E19.40582
G1 X49.143 Y211.261 E19.41462
G1 X48.912 Y210.87 E19.42973
G1 X46.754 Y207.129 E19.57337
G1 X46.356 Y206.417 E19.6005
G1 X46.227 Y206.179 E19.60951
G1 X45.974 Y205.698 E19.62758
G1 X44.055 Y201.952 E19.76757
G1 X43.66 Y201.155 E19.79716
G1 X43.541 Y200.906 E19.80634
G1 X43.343 Y200.478 E19.82202
G1 X41.599 Y196.608 E19.9632
G1 X41.242 Y195.787 E19.99298
G1 X41.132 Y195.523 E20.00249
G1 X40.956 Y195.086 E20.01816
G1 X39.405 Y191.132 E20.15943
G1 X39.103 Y190.33 E20.18793
G1 X39.012 Y190.081 E20.19675
G1 X38.831 Y189.559 E20.21512
G1 X37.489 Y185.561 E20.35539
G1 X37.221 Y184.724 E20.38462
G1 X37.143 Y184.472 E20.39339
G1 X37.016 Y184.035 E20.40853
G1 X35.848 Y179.879 E20.55212
G1 X35.63 Y179.058 E20.58037
G1 X35.497 Y178.518 E20.59887
G1 X34.548 Y174.363 E20.74062
G1 X34.323 Y173.319 E20.77614
G1 X34.269 Y173.049 E20.7853
G1 X34.189 Y172.619 E20.79985
G1 X33.441 Y168.368 E20.94341
G1 X33.307 Y167.54 E20.9713
G1 X33.268 Y167.275 E20.98021
G1 X33.206 Y166.817 E20.99559
G1 X32.674 Y162.571 E21.13791
G1 X32.577 Y161.696 E21.16719
G1 X32.55 Y161.427 E21.17619
G1 X32.509 Y160.931 E21.19274
G1 X32.196 Y156.729 E21.33288
G1 X32.142 Y155.835 E21.36267
G1 X32.13 Y155.586 E21.37096
G1 X32.109 Y155.02 E21.3898
G1 X32.008 Y150.957 E21.52498
G1 X31.997 Y149.947 E21.55858
G1 X31.997 Y149.672 E21.56772
G1 X32.004 Y149.212 E21.58302
G1 X32.111 Y144.948 E21.72489
G1 X32.145 Y144.083 E21.75368
G1 X32.16 Y143.811 E21.76274
G1 X32.197 Y143.243 E21.78167
G1 X32.506 Y139.12 E21.91919
G1 X32.59 Y138.183 E21.95048
G1 X32.615 Y137.937 E21.9587
G1 X32.671 Y137.441 E21.97531
G1 X33.202 Y133.216 E22.11694
G1 X33.321 Y132.366 E22.14548
G1 X33.362 Y132.096 E22.15457
G1 X33.445 Y131.6 E22.17129
G1 X34.162 Y127.534 E22.30861
G1 X34.339 Y126.601 E22.3402
G1 X34.395 Y126.324 E22.3496
G1 X34.501 Y125.837 E22.36618
G1 X35.453 Y121.673 E22.50824
G1 X35.658 Y120.834 E22.53697
G1 X35.721 Y120.589 E22.54538
G1 X35.862 Y120.069 E22.5633
G1 X37.008 Y115.997 E22.704
G1 X37.264 Y115.138 E22.73381
G1 X37.432 Y114.609 E22.75227
G1 X38.802 Y110.526 E22.89552
G1 X39.123 Y109.609 E22.92783
G1 X39.226 Y109.33 E22.93772
G1 X39.381 Y108.924 E22.95218
G1 X40.899 Y105.056 E23.09038
G1 X41.284 Y104.115 E23.12419
G1 X41.389 Y103.866 E23.13318
G1 X41.585 Y103.421 E23.14936
G1 X43.33 Y99.554 E23.29046
G1 X43.7 Y98.766 E23.31942
G1 X43.804 Y98.55 E23.32739
G1 X44.078 Y98.001 E23.3478
G1 X45.962 Y94.328 E23.48509
G1 X46.393 Y93.515 E23.5157
G1 X46.534 Y93.258 E23.52545
G1 X46.763 Y92.852 E23.54095
G1 X48.804 Y89.315 E23.67678
G1 X49.34 Y88.418 E23.71153
G1 X49.458 Y88.225 E23.71905
G1 X49.749 Y87.764 E23.73719
G1 X52.049 Y84.205 E23.87813
G1 X52.542 Y83.465 E23.9077
G1 X52.704 Y83.227 E23.91728
G1 X52.944 Y82.889 E23.93106
G1 X55.436 Y79.423 E24.07305
G1 X55.957 Y78.72 E24.10215
G1 X56.117 Y78.51 E24.11093
G1 X56.486 Y78.038 E24.13086
G1 X59.071 Y74.8 E24.26866
G1 X59.642 Y74.104 E24.29861
G1 X59.811 Y73.903 E24.30734
G1 X60.115 Y73.55 E24.32284
G1 X62.872 Y70.426 E24.46142
G1 X63.518 Y69.714 E24.49339
G1 X63.707 Y69.511 E24.50262
G1 X64.043 Y69.16 E24.51878
G1 X66.979 Y66.152 E24.65858
G0 F6000 X67.261 Y66.435
G1 F1200 X67.928 Y65.769 E24.68993
G1 X68.113 Y65.589 E24.69852
G1 X68.473 Y65.247 E24.71503
G1 X71.465 Y62.471 E24.85078
G1 X72.225 Y61.786 E24.88481
G1 X72.426 Y61.609 E24.89372
G1 X72.801 Y61.289 E24.91012
G1 X76.072 Y58.545 E25.05212
G1 X76.697 Y58.036 E25.07893
G1 X76.893 Y57.88 E25.08726
G1 X77.329 Y57.543 E25.10559
